X: 2
T:Black Joke, Ascott
M:6/8
L:1/8
A:Ascott
P:A(AB)5
K:G
P:A
|:G|DGG GAG|ABA A2G|GBd dcB|ABc cBA|B2G E2D|DEF G2:|
P:B
|:G|GBd d2d|ede d3 |GBd d2d|ede d3 |
BcB BAG|ABA A2G|GBd dcB|ABc cBA|B2G E2D|DEF G2:|
